X:1
T:Piano Concerto No. 2 (theme)
C:Sergei Rachmaninoff
O:Russia
Z:Public domain. S. Rachmaninoff (d. 1943), Op. 18. AU-PD (d. <=1955).
K:Eb
M:4/4
L:1/4
Q:1/4=72
|B | B2 dc | B2 AG | F2 EF | G4 | G2 dc | B2 cB | A3 G | B4 | c2 dc | B2 AG | A2 GA | B4 |]
